public/images/icon-eye-slash.svg

<svg width="20" height="20" viewBox="0 0 20 20" fill="none" xmlns="http://www.w3.org/2000/svg">
<path fill-rule="evenodd" clip-rule="evenodd" d="M3.70704 2.29301C3.51844 2.11085 3.26584 2.01006 3.00364 2.01234C2.74144 2.01461 2.49063 2.11978 2.30522 2.30519C2.11981 2.4906 2.01465 2.74141 2.01237 3.00361C2.01009 3.26581 2.11088 3.51841 2.29304 3.70701L16.293 17.707C16.4816 17.8892 16.7342 17.99 16.9964 17.9877C17.2586 17.9854 17.5095 17.8802 17.6949 17.6948C17.8803 17.5094 17.9854 17.2586 17.9877 16.9964C17.99 16.7342 17.8892 16.4816 17.707 16.293L16.234 14.82C17.7916 13.5781 18.9433 11.8999 19.542 10C18.268 5.94301 14.478 3.00001 10 3.00001C8.43247 2.99788 6.88654 3.36586 5.48804 4.07401L3.70804 2.29301H3.70704ZM7.96804 6.55301L9.48204 8.06801C9.82113 7.97796 10.1779 7.97856 10.5167 8.06974C10.8555 8.16092 11.1644 8.33949 11.4125 8.58758C11.6606 8.83566 11.8391 9.14455 11.9303 9.48334C12.0215 9.82213 12.0221 10.1789 11.932 10.518L13.446 12.032C13.897 11.268 14.0812 10.3758 13.9697 9.49569C13.8581 8.61557 13.4572 7.7975 12.8299 7.17019C12.2025 6.54287 11.3845 6.1419 10.5044 6.03036C9.62425 5.91881 8.73202 6.10302 7.96804 6.55401V6.55301Z" fill="#253047"/>
<path d="M12.454 16.697L9.75001 13.992C8.77769 13.9311 7.86103 13.5174 7.17206 12.8286C6.4831 12.1398 6.06918 11.2233 6.00801 10.251L2.33501 6.578C1.49022 7.58402 0.852357 8.74692 0.458008 10C1.73201 14.057 5.52301 17 10 17C10.847 17 11.669 16.895 12.454 16.697Z" fill="#253047"/>
</svg>

<svg xmlns="http://www.w3.org/2000/svg" width="20" height="20" fill="none"><path fill="#253047" fill-rule="evenodd" d="M3.707 2.293a1 1 0 0 0-1.414 1.414l14 14a.9997.9997 0 0 0 1.4019-.0122 1 1 0 0 0 .0121-1.4018l-1.473-1.473A10.0136 10.0136 0 0 0 19.542 10C18.268 5.943 14.478 3 10 3a9.9578 9.9578 0 0 0-4.512 1.074l-1.78-1.781h-.001Zm4.261 4.26 1.514 1.515a2.003 2.003 0 0 1 2.45 2.45l1.514 1.514a4.0002 4.0002 0 0 0-.6161-4.8618A4.0003 4.0003 0 0 0 7.968 6.554v-.001Z" clip-rule="evenodd"/><path fill="#253047" d="M12.454 16.697 9.75 13.992a3.9999 3.9999 0 0 1-3.742-3.741L2.335 6.578A9.98 9.98 0 0 0 .458 10c1.274 4.057 5.065 7 9.542 7 .847 0 1.669-.105 2.454-.303Z"/></svg>
